X:1
T:Bethlehem
T:William Moore, 1826 A minor              Counter by B. C. Johnston, 2018
T:Transcribed from Moore's Columbian Harmony, 1826
T:Charles Wesley, 1745 Nativity Hymns No. 18           88. 88. 88. 88. (L. M. D.) 
%%score [ 1 2 3 4 ]
L:1/8
Q:1/4=200
M:6/4
K:C
V:1 treble nm="Tr." snm="Tr."
V:2 treble nm="C." snm="C."
V:3 treble-8 nm="T." snm="T."
V:4 bass nm="B." snm="B."
V:1
"_1.    All   glory  to  God  in  the  sky, And peace upon earth be restored;  O    Jesus,  ex –al–ted  on  high,  Ap–pear  our omnipotent Lord:  Who  meanly  in  Bethlehem  born, Did\n2. When thou in our flesh did appear, All nature acknowledged thy birth; A – rose  the  acceptable year,  And heaven was opened on earth:  Re–cei–ving its Lord from above, The" A6 | %1
 c2 c2 c2 G2 E2 G2 | A6 A6 | B2 d2 d2 c2 d2 e2 | e6 e6 | g2 g2 g2 e2 d2 c2 | B6 B6 | %7
 B2 d2 d2 c2 d2 d2 | e6 e6 |: e2 d2 c2 d2 e2 f2 | g6 e6 | %11
"_1. stoop to redeem a lost race,  Once more to thy creatures return,  And reign in thy kingdom of grace.  Who\n2. world  was  united to bless   The  giver  of  concord  and  love,   The Prince and the author of peace.  Re–" A2 A2 A2 e2 e2 e2 | %12
 d6 A6 | c2 c2 c2 c2 d2 e2 | e6 e6 | g2 e2 e2 d2 c2 B2 |1 A6 e6 :|2 A12 |] %18
V:2
"_3. O would thou again be made known,  Again  in  thy  Spirit  descend,  And set up in each of thine own,  A kingdom that never shall end!  Thou  on – ly  art  able  to  bless,  And" A6 | %1
 E2 A2 G2 G2 B2 G2 | E6 E6 | B2 B2 A2 G2 A2 E2 | E6 A6 | A2 E2 E2 E2 D2 D2 | E6 E6 | %7
 D2 D2 G2 G2 A2 B2 | A6 E6 |: E2 F2 E2 G2 E2 F2 | E6 E6 | %11
"_3. make the glad nations obey,  And  bid  the  dire enmity cease, And bow the whole world to thy sway.  Thou" E2 E2 E2 A2 A2 A2 | %12
 G6 A6 | A2 E2 E2 A2 F2 D2 | E6 E6 | G2 E2 E2 G2 A2 B2 |1 A6 E6 :|2 A12 |] %18
V:3
"_4. Come then  to thy servants again,  Who long thy appearing to know,  Thy quiet  and peaceable reign     In   mercy  establish  be – low:  All  sorrow before  thee shall fly,  And\n5. No     horrid  a–la–rum  of   war  Shall break our  eternal repose;  No sound of the trumpet is there, Where Jesus’s Spirit o’erflows:  Appeased by the charms of thy grace  We" E6 | %1
 A2 A2 G2 A2 B2 d2 | e6 e6 | d2 B2 A2 G2 A2 B2 | E6 E6 | A2 A2 G2 A2 B2 d2 | e6 e6 | %7
 d2 B2 A2 G2 A2 B2 | A6 e6 |: g2 f2 e2 d2 e2 f2 | d6 A6 | %11
"_4. anger  and  hatred  be  o’er,  And  envy  and  malice  shall  die,   And  discord  afflict   us  no   more.  All\n5. all  shall  in  a –mi –ty join,  And  kindly  each  other embrace,   And  love with  a passion like thine.  Ap–" e2 e2 e2 A2 A2 A2 | %12
 G6 E6 | A2 A2 G2 A2 B2 d2 | e6 e6 | d2 B2 A2 G2 A2 B2 |1 A6 e6 :|2 A12 |] %18
V:4
 E,6 | E,2 E,2 E,2 D,2 C,2 D,2 | E,6 E,6 | A,2 E,2 E,2 D,2 C,2 D,2 | E,6 A,,6 | %5
 C,2 C,2 C,2 D,2 C,2 D,2 | E,6 E,6 | A,2 E,2 E,2 C,2 D,2 E,2 | A,,6 A,6 |: C2 B,2 A,2 G,2 E,2 E,2 | %10
 G,6 E,6 | A,,2 A,,2 A,,2 E,2 E,2 E,2 | D,6 A,,6 | E,2 E,2 E,2 D,2 C,2 D,2 | E,6 E,6 | %15
 F,2 E,2 E,2 D,2 E,2 E,2 |1 A,,6 A,6 :|2 A,,12 |] %18

